X:1
T: Welcome to Glenisle
C:C. Sherrit
R:Jig
Q:180
K:D
M:6/8
L:1/16
A2|:F2G2^G2 A2B2c2|d2e2=f2 ^f4d2|B4g2 f2e2d2|e2c2A2 G2F2E2|
F2G2^G2 A2f2A2|G2A2^A2 B2g2B2|c2b2a2 g2f2e2|1d6 d4A2:||2d6 d4e2|
|:f2e2d2 c4a2|B2g2B2 A2d2f2|g2f2e2 f2e2d2|
|1e2^g2b2 a4=g2|f2e2d2 c4a2|B2g2B2 A2G2F2|G2A2B2 A2d2c2|d6 d4e2:|
|2e2c2A2 G2F2E2|F2G2^G2 A2f2A2|G2A2^A2 B2g2B2|c2b2a2 g2f2e2|d6 d4||
